icon_installer/data/icons/scalable/actions/show-dotted-box-symbolic.svg

<?xml version="1.0" encoding="UTF-8"?>
<svg height="16px" viewBox="0 0 16 16" width="16px" xmlns="http://www.w3.org/2000/svg">
    <path d="m 2.199219 0 c -1.253907 0 -2.199219 1.101562 -2.199219 2.316406 v 1.683594 h 2 v -1.683594 c 0 -0.242187 0.125 -0.316406 0.199219 -0.316406 h 1.800781 v -2 z m 3.800781 0 v 2 h 4 v -2 z m 6 0 v 2 h 1.800781 c 0.074219 0 0.199219 0.074219 0.199219 0.316406 v 1.683594 h 2 v -1.683594 c 0 -1.214844 -0.945312 -2.316406 -2.199219 -2.316406 z m -12 6 v 4 h 2 v -4 z m 14 0 v 4 h 2 v -4 z m -14 6 v 1.679688 c 0 1.21875 0.945312 2.320312 2.199219 2.320312 h 1.800781 v -2 h -1.800781 c -0.074219 0 -0.199219 -0.074219 -0.199219 -0.320312 v -1.679688 z m 14 0 v 1.679688 c 0 0.246093 -0.125 0.320312 -0.199219 0.320312 h -1.800781 v 2 h 1.800781 c 1.253907 0 2.199219 -1.101562 2.199219 -2.320312 v -1.679688 z m -8 2 v 2 h 4 v -2 z m 0 0" fill="#222222"/>
</svg>

<svg xmlns="http://www.w3.org/2000/svg" width="16" height="16"><path fill="#222" d="M2.2 0C.944 0 0 1.102 0 2.316V4h2V2.316C2 2.074 2.125 2 2.2 2H4V0zM6 0v2h4V0zm6 0v2h1.8c.075 0 .2.074.2.316V4h2V2.316C16 1.102 15.055 0 13.8 0zM0 6v4h2V6zm14 0v4h2V6zM0 12v1.68C0 14.898.945 16 2.2 16H4v-2H2.2c-.075 0-.2-.074-.2-.32V12zm14 0v1.68c0 .246-.125.32-.2.32H12v2h1.8c1.255 0 2.2-1.102 2.2-2.32V12zm-8 2v2h4v-2zm0 0"/></svg>
